X:104
U: ~ = !turn!
%%topmargin 3cm
T:Kerryman's Daughter
B:Traditional Irish Fiddle Tunes. Randy Miller and Jack Perron.
Z:Transcribed by Ralph Palmer
S:Michael Coleman
R:Reel
L:1/8
M:C|
K:C
cA | GFEF GAcd | ((3ege) dB {/d}cA A2 | GFEF GAcd | ((3ege) dB c2 A |
GFEF GAcd | ((3ege) dB {/d}cA A2 | GFEF GAcd |edcB c2 ||
cd | eg ~g2 age^f | gedB {/d}cA A2 | eg ~g2 ca ~a2 | bagb ~a3 g |
eg ~g2 age^f | gedB {/d}cA A2 | G2 {/A}GE GAcd | ((3ege) dB c2 |]
